X: 1
T:Johnny with the Bandy Legs
M:C|
L:1/8
Q:80
C:arr: Ray Scott
S:March
K:HP
{g}A3/2d/2{g}fd|
{g}B2{GdGe}B2|
{g}A3/2c/2{gef}ec|  !
{Gdc}d3/2e/2{g}fa|
{g}A3/2d/2{g}fd|
{g}B2{GdGe}B2|  !
{g}A3/2c/2{gef}ec|
{Gdc}d2{gdG}d2:|
{g}f2d2|  !
{g}A2{GAG}A{g}A|
{gf}g2e2|
a2{GdG}ag|  !
{a}f2d2|
{g}B2{GdGe}B2|
{g}A3/2c/2{gef}ec|  !
{Gdc}d2{gdG}d2:|
